assets/images/red-heart.svg

<?xml version="1.0" encoding="UTF-8"?>
<svg width="396px" height="353px" viewBox="0 0 396 353" version="1.1" xmlns="http://www.w3.org/2000/svg" xmlns:xlink="http://www.w3.org/1999/xlink">
    <!-- Generator: Sketch 41.2 (35397) - http://www.bohemiancoding.com/sketch -->
    <title>Group</title>
    <desc>Created with Sketch.</desc>
    <defs>
        <path d="M146.403808,6.83635515 C118.120666,-3.42373099 90.3750326,-2.13503372 63.1659971,10.7028824 C35.9569617,23.5407985 17.1692074,44.1533594 6.80248751,72.5412408 C0.54962762,89.6638647 -1.39278104,121.363435 0.97641807,167.638839 C3.34537035,213.91492 7.03023318,256.585499 12.0323323,295.651058 C17.0344315,334.716617 19.6992893,353.799801 20.0285561,352.898148 C24.4903067,348.902959 30.6044186,343.466518 38.3708919,336.588827 C46.1373651,329.711135 60.1955427,316.567391 80.5455939,297.159187 C100.895645,277.750983 119.109726,259.737189 135.188332,243.116453 C151.267106,226.49731 166.929904,208.959527 182.176154,190.506726 C197.422403,172.053924 207.020596,157.42009 210.969823,146.605659 C221.336543,118.217778 220.237868,90.3911501 207.674046,63.1251005 C195.110224,35.859051 174.68695,17.0964413 146.403808,6.83635515" id="path-1"></path>
        <path d="M146.403808,6.83635515 C118.120666,-3.42373099 90.3750326,-2.13503372 63.1659971,10.7028824 C35.9569617,23.5407985 17.1692074,44.1533594 6.80248751,72.5412408 C0.54962762,89.6638647 -1.39278104,121.363435 0.97641807,167.638839 C3.34537035,213.91492 7.03023318,256.585499 12.0323323,295.651058 C17.0344315,334.716617 19.6992893,353.799801 20.0285561,352.898148 C24.4903067,348.902959 30.6044186,343.466518 38.3708919,336.588827 C46.1373651,329.711135 60.1955427,316.567391 80.5455939,297.159187 C100.895645,277.750983 119.109726,259.737189 135.188332,243.116453 C151.267106,226.49731 166.929904,208.959527 182.176154,190.506726 C197.422403,172.053924 207.020596,157.42009 210.969823,146.605659 C221.336543,118.217778 220.237868,90.3911501 207.674046,63.1251005 C195.110224,35.859051 174.68695,17.0964413 146.403808,6.83635515" id="path-3"></path>
    </defs>
    <g id="Page-1" stroke="none" stroke-width="1" fill="none" fill-rule="evenodd">
        <g id="Group">
            <g id="Combined-Shape" transform="translate(287.000000, 176.500000) scale(-1, 1) translate(-287.000000, -176.500000) translate(178.000000, 0.000000)">
                <g transform="translate(109.000000, 176.500000) scale(-1, 1) translate(-109.000000, -176.500000) ">
                    <mask id="mask-2" fill="white">
                        <use xlink:href="#path-1"></use>
                    </mask>
                    <use id="Mask" fill="#FFFFFF" xlink:href="#path-1"></use>
                </g>
            </g>
            <g id="Combined-Shape">
                <g transform="translate(109.000000, 176.500000) scale(-1, 1) translate(-109.000000, -176.500000) ">
                    <mask id="mask-4" fill="white">
                        <use xlink:href="#path-3"></use>
                    </mask>
                    <use id="Mask" fill="#FD7E81" xlink:href="#path-3"></use>
                    <path d="M106.35123,160.880619 C106.329226,161.032256 106.307947,161.179298 106.287392,161.321746 C106.376783,161.567345 102.466996,158.055709 94.55812,150.787643 C86.6492437,143.519576 78.3831209,135.26942 69.7593894,126.037305 C61.135725,116.805374 55.9751431,109.857207 54.2775966,105.193236 C51.4632063,97.4607624 51.7782749,89.8750528 55.2227355,82.4359235 C58.6671961,74.9967943 64.2524575,69.8713055 71.9786338,67.0592073 C79.7048102,64.2471091 87.2779693,64.5833244 94.6983593,68.0679715 C99.5946464,70.367289 103.488212,73.5913009 106.379074,77.7400603 C109.269937,73.5913009 113.163502,70.367289 118.059789,68.0679715 C125.480179,64.5833244 133.053338,64.2471091 140.779514,67.0592073 C148.505691,69.8713055 154.090952,74.9967943 157.535413,82.4359235 C160.979873,89.8750528 161.294942,97.4607624 158.480552,105.193236 C157.408403,108.138941 154.796309,112.122689 150.644517,117.144363 C146.492726,122.166037 142.226729,126.938064 137.84668,131.459459 C133.466679,135.981288 128.504505,140.881684 122.960024,146.161014 C117.415544,151.440345 113.585174,155.015496 111.468869,156.886033 C109.352563,158.75657 107.686525,160.235141 106.470756,161.321746 C106.453919,161.368005 106.414078,161.220961 106.35123,160.880619 Z" fill="#FFFFFF" mask="url(#mask-4)"></path>
                </g>
            </g>
        </g>
    </g>
</svg>

<svg width="396" height="353" viewBox="0 0 396 353" xmlns="http://www.w3.org/2000/svg" xmlns:xlink="http://www.w3.org/1999/xlink"><title>Group</title><defs><path d="M146.404 6.836c-28.283-10.26-56.029-8.971-83.238 3.867C35.957 23.54 17.169 44.153 6.802 72.54.55 89.664-1.393 121.363.976 167.64c2.37 46.276 6.054 88.946 11.056 128.012 5.002 39.066 7.667 58.149 7.997 57.247a4717.86 4717.86 0 0 1 18.342-16.31c7.766-6.877 21.825-20.02 42.175-39.429 20.35-19.408 38.564-37.422 54.642-54.043 16.08-16.619 31.742-34.156 46.988-52.61 15.246-18.452 24.845-33.086 28.794-43.9 10.367-28.388 9.268-56.215-3.296-83.48-12.564-27.267-32.987-46.03-61.27-56.29" id="a"/><path d="M146.404 6.836c-28.283-10.26-56.029-8.971-83.238 3.867C35.957 23.54 17.169 44.153 6.802 72.54.55 89.664-1.393 121.363.976 167.64c2.37 46.276 6.054 88.946 11.056 128.012 5.002 39.066 7.667 58.149 7.997 57.247a4717.86 4717.86 0 0 1 18.342-16.31c7.766-6.877 21.825-20.02 42.175-39.429 20.35-19.408 38.564-37.422 54.642-54.043 16.08-16.619 31.742-34.156 46.988-52.61 15.246-18.452 24.845-33.086 28.794-43.9 10.367-28.388 9.268-56.215-3.296-83.48-12.564-27.267-32.987-46.03-61.27-56.29" id="b"/></defs><g fill="none" fill-rule="evenodd"><use fill="#FFF" xlink:href="#a" transform="translate(178)"/><g transform="matrix(-1 0 0 1 218 0)"><mask id="c" fill="#fff"><use xlink:href="#b"/></mask><use fill="#FD7E81" xlink:href="#b"/><path d="M106.351 160.88l-.064.442c.09.245-3.82-3.266-11.729-10.534-7.909-7.268-16.175-15.519-24.799-24.75-8.623-9.233-13.784-16.18-15.481-20.845-2.815-7.732-2.5-15.318.945-22.757 3.444-7.44 9.03-12.565 16.756-15.377 7.726-2.812 15.299-2.476 22.72 1.009 4.896 2.3 8.79 5.523 11.68 9.672 2.89-4.149 6.785-7.373 11.68-9.672 7.421-3.485 14.994-3.82 22.72-1.009 7.727 2.812 13.312 7.938 16.756 15.377 3.445 7.44 3.76 15.025.946 22.757-1.073 2.946-3.685 6.93-7.836 11.951a244.123 244.123 0 0 1-12.798 14.315c-4.38 4.522-9.342 9.423-14.887 14.702-5.544 5.28-9.375 8.854-11.491 10.725-2.116 1.87-3.782 3.35-4.998 4.436-.017.046-.057-.101-.12-.441z" fill="#FFF" mask="url(#c)"/></g></g></svg>
